svg/justvector/cinch.svg

<svg xmlns="http://www.w3.org/2000/svg" viewBox="0 0 100 100" enable-background="new 0 0 100 100"><path d="m94.5 23.882c0 7.992-7.393 14.807-17.82 17.566l-8.353 8.573v-7.317c-.632.027-1.265.063-1.905.063-15.51 0-28.08-8.454-28.08-18.885 0-10.428 12.574-18.882 28.08-18.882 15.507 0 28.08 8.454 28.08 18.882m-63.12 18.205c-14.844 0-26.879 11.845-26.879 26.457 0 14.61 12.04 26.456 26.879 26.456h12.359c.122 0 .238-.018.36-.019v-14.157h-7.678c0 0-14.161 1.185-14.402-12.281.241-13.467 14.402-12.281 14.402-12.281h7.679v-14.157c-.122-.0001-.238-.018-.36-.018h-12.36"/></svg>

<?xml version="1.0" encoding="iso-8859-1"?>
<!-- Generator: Adobe Illustrator 15.0.0, SVG Export Plug-In . SVG Version: 6.00 Build 0)  -->
<!DOCTYPE svg PUBLIC "-//W3C//DTD SVG 1.1//EN" "http://www.w3.org/Graphics/SVG/1.1/DTD/svg11.dtd">
<svg version="1.1" id="Layer_1" xmlns="http://www.w3.org/2000/svg" xmlns:xlink="http://www.w3.org/1999/xlink" x="0px" y="0px"
	 width="100px" height="100px" viewBox="0 0 100 100" style="enable-background:new 0 0 100 100;" xml:space="preserve">
<path id="Cinch" d="M94.5,23.882c0,7.992-7.393,14.807-17.82,17.566l-8.353,8.573v-7.317c-0.632,0.027-1.265,0.063-1.905,0.063
	c-15.51,0-28.084-8.454-28.084-18.885C38.338,13.454,50.912,5,66.422,5C81.929,5,94.5,13.454,94.5,23.882z M31.379,42.087
	C16.535,42.087,4.5,53.932,4.5,68.544C4.5,83.154,16.535,95,31.379,95h12.359c0.122,0,0.238-0.018,0.36-0.019V80.824H36.42
	c0,0-14.161,1.185-14.402-12.281C22.259,55.076,36.42,56.262,36.42,56.262h7.679V42.105c-0.122-0.001-0.238-0.018-0.36-0.018H31.379
	z"/>
</svg>
